**kern	**kern
*part1	*part1
*staff2	*staff1
*I"Piano	*
*clefF4	*clefG2
*k[b-e-a-]	*k[b-e-a-]
=1	=1
*^	*
8BB-L	[4.EE-	8GL 8B- 8e-
8E-	.	8c 8f 8a-
8BB-J	.	8A-J 8d 8f
=	=	=
8E-L	4.EE-]	4.B- 4.e- 4.g
8BB-	.	.
8E-J	.	.
=	=	=
8BB-L	[4.EE-	8GL 8B- 8e-
8E-	.	8c 8f 8a-
8BB-J	.	8A-J 8d 8f
=	=	=
8E-L	4.EE-]	4.B- 4.e- 4.g
8BB-	.	.
8E-J	.	.
=	=	=
8BB-L	[4.EE-	4A- 4c 4f
8E-	.	.
8BB-J	.	8c 8f 8a-
=	=	=
8E-L	4.EE-]	4A- 4c 4f
8BB-	.	.
8E-J	.	8c 8f 8a-
=	=	=
8BB-L	[4.EE-	4B- 4e- 4g
8E-	.	.
8BB-J	.	8G 8B- 8e-
*v	*v	*
=	=
*-	*-
!!!system-decoration: {(s1,s2)}
